X:1
L:1/8
M:2/4
K:A
 (3e/f/g/ | a2 (gf) | faeg | afec | BcAc | d2 (eg) | fgaf | eAcA | (Bc) A2 :: G2 c2 | cBAB | 
 c2 e2 | Bc AF | E2 c2 | cBAB | e2 (cA) | (Bc) A2 :|
